packages/kaspersky-hexa-ui-icons/src/iconsSVGs/16/DataMiningRule.svg

<svg width="16" height="16" viewBox="0 0 16 16" fill="none" xmlns="http://www.w3.org/2000/svg">
<path d="M12.8737 8.54047C13.1276 8.28663 13.5391 8.28663 13.793 8.54047L15.1263 9.87381C15.2482 9.99571 15.3167 10.161 15.3167 10.3334C15.3167 10.5058 15.2482 10.6711 15.1263 10.793L13.793 12.1264C13.5391 12.3802 13.1276 12.3802 12.8737 12.1264C12.6199 11.8725 12.6199 11.461 12.8737 11.2071L13.0974 10.9834H10C9.64102 10.9834 9.35001 10.6924 9.35001 10.3334C9.35001 9.97444 9.64102 9.68343 10 9.68343H13.0974L12.8737 9.45971C12.6199 9.20587 12.6199 8.79432 12.8737 8.54047Z" fill="black"/>
<path fill-rule="evenodd" clip-rule="evenodd" d="M5.29454 1.04395C4.16235 1.04395 3.24454 1.96176 3.24454 3.09395V5.96266C3.65002 5.80688 4.08756 5.71577 4.54454 5.70194V3.09395C4.54454 2.67973 4.88032 2.34395 5.29454 2.34395H8.51459L8.51459 4.48735C8.51459 5.61953 9.4324 6.53735 10.5646 6.53735H12.4563V7.25788C12.861 7.05406 13.3219 7.00019 13.7563 7.09627V6.10088C13.7563 5.80981 13.6459 5.52956 13.4474 5.31667L9.80489 1.40973C9.58737 1.17643 9.28273 1.04395 8.96375 1.04395H5.29454ZM11.5961 5.23735L9.81459 3.3265L9.81459 4.48735C9.81459 4.90157 10.1504 5.23735 10.5646 5.23735H11.5961Z" fill="black"/>
<path d="M12.2544 13.2915C12.6487 13.554 13.1175 13.6576 13.5707 13.6024C13.2243 14.399 12.4303 14.956 11.5063 14.956H5.29454C4.33005 14.956 3.52113 14.2899 3.30266 13.3927C3.93731 13.6251 4.62404 13.656 5.29454 13.656H11.5063C11.8101 13.656 12.0805 13.5134 12.2544 13.2915Z" fill="black"/>
<path fill-rule="evenodd" clip-rule="evenodd" d="M3.24454 11.923C2.49669 11.4506 2 10.6167 2 9.66676C2 8.194 3.19391 7.0001 4.66667 7.0001C6.13943 7.0001 7.33333 8.194 7.33333 9.66676C7.33333 11.1395 6.13943 12.3334 4.66667 12.3334C4.62574 12.3334 4.58502 12.3325 4.54454 12.3307C4.06794 12.3092 3.62392 12.1626 3.24454 11.923ZM5.38378 10.9496C5.53999 11.1058 5.79326 11.1058 5.94947 10.9496C6.10568 10.7934 6.10568 10.5401 5.94947 10.3839L5.06663 9.50106V8.33341C5.06663 8.11249 4.88754 7.93341 4.66663 7.93341C4.62405 7.93341 4.58302 7.94006 4.54454 7.95238C4.38335 8.00401 4.26664 8.15509 4.26664 8.33341V9.66675C4.26664 9.77283 4.30878 9.87457 4.3838 9.94959L5.38378 10.9496Z" fill="black"/>
</svg>

<svg xmlns="http://www.w3.org/2000/svg" width="16" height="16" fill="none" viewBox="0 0 16 16"><path fill="#000" fill-rule="evenodd" d="M5.2945 1.0438c-1.1321 0-2.05.9178-2.05 2.05v2.8687a3.95 3.95 0 0 1 1.3-.2607v-2.608a.75.75 0 0 1 .75-.75h3.2201v2.1434c0 1.1322.9178 2.05 2.05 2.05h1.8917v.7206a1.955 1.955 0 0 1 1.3-.1617v-.9953a1.15 1.15 0 0 0-.3089-.7843L9.8049 1.4096a1.15 1.15 0 0 0-.8411-.3658zm6.3016 4.1934L9.8146 3.3264v1.1608a.75.75 0 0 0 .75.75zm-8.3516 6.6856C2.4967 11.4505 2 10.6166 2 9.6666 2 8.194 3.1939 7 4.6667 7c1.4727 0 2.6666 1.1939 2.6666 2.6666 0 1.4728-1.1939 2.6667-2.6666 2.6667q-.0615 0-.1222-.0027a2.65 2.65 0 0 1-1.3-.4078m2.1393-.9733a.4.4 0 0 0 .5657-.5657l-.8829-.8829V8.3333a.4.4 0 1 0-.8 0v1.3333a.4.4 0 0 0 .1172.2829zm7.4899-2.4092a.65.65 0 0 1 .9193 0l1.3333 1.3334a.65.65 0 0 1 0 .9192l-1.3333 1.3334a.6501.6501 0 0 1-.9193-.9193l.2237-.2237H10a.65.65 0 1 1 0-1.3h3.0974l-.2237-.2237a.65.65 0 0 1 0-.9193m-.6193 4.7511a1.95 1.95 0 0 0 1.3163.3108c-.3464.7966-1.1404 1.3537-2.0644 1.3537H5.2945c-.9644 0-1.7734-.6661-1.9918-1.5633.6346.2324 1.3213.2633 1.9918.2633h6.2118a.948.948 0 0 0 .7481-.3645"/></svg>
